static/graphsymbols/graphql.svg

<?xml version="1.0" encoding="utf-8"?>
<!-- Generator: Adobe Illustrator 18.0.0, SVG Export Plug-In . SVG Version: 6.00 Build 0)  -->
<!DOCTYPE svg PUBLIC "-//W3C//DTD SVG 1.1//EN" "http://www.w3.org/Graphics/SVG/1.1/DTD/svg11.dtd">
<svg version="1.1" id="GraphQL_Logo" xmlns="http://www.w3.org/2000/svg" xmlns:xlink="http://www.w3.org/1999/xlink" x="0px"
	 y="0px" viewBox="0 0 400 400" enable-background="new 0 0 400 400" xml:space="preserve">
<g>
	<g>
		<g>
			
				<rect x="122" y="-0.4" transform="matrix(-0.866 -0.5 0.5 -0.866 163.3196 363.3136)" fill="#E535AB" width="16.6" height="320.3"/>
		</g>
	</g>
	<g>
		<g>
			<rect x="39.8" y="272.2" fill="#E535AB" width="320.3" height="16.6"/>
		</g>
	</g>
	<g>
		<g>
			
				<rect x="37.9" y="312.2" transform="matrix(-0.866 -0.5 0.5 -0.866 83.0693 663.3409)" fill="#E535AB" width="185" height="16.6"/>
		</g>
	</g>
	<g>
		<g>
			
				<rect x="177.1" y="71.1" transform="matrix(-0.866 -0.5 0.5 -0.866 463.3409 283.0693)" fill="#E535AB" width="185" height="16.6"/>
		</g>
	</g>
	<g>
		<g>
			
				<rect x="122.1" y="-13" transform="matrix(-0.5 -0.866 0.866 -0.5 126.7903 232.1221)" fill="#E535AB" width="16.6" height="185"/>
		</g>
	</g>
	<g>
		<g>
			
				<rect x="109.6" y="151.6" transform="matrix(-0.5 -0.866 0.866 -0.5 266.0828 473.3766)" fill="#E535AB" width="320.3" height="16.6"/>
		</g>
	</g>
	<g>
		<g>
			<rect x="52.5" y="107.5" fill="#E535AB" width="16.6" height="185"/>
		</g>
	</g>
	<g>
		<g>
			<rect x="330.9" y="107.5" fill="#E535AB" width="16.6" height="185"/>
		</g>
	</g>
	<g>
		<g>
			
				<rect x="262.4" y="240.1" transform="matrix(-0.5 -0.866 0.866 -0.5 126.7953 714.2875)" fill="#E535AB" width="14.5" height="160.9"/>
		</g>
	</g>
	<path fill="#E535AB" d="M369.5,297.9c-9.6,16.7-31,22.4-47.7,12.8c-16.7-9.6-22.4-31-12.8-47.7c9.6-16.7,31-22.4,47.7-12.8
		C373.5,259.9,379.2,281.2,369.5,297.9"/>
	<path fill="#E535AB" d="M90.9,137c-9.6,16.7-31,22.4-47.7,12.8c-16.7-9.6-22.4-31-12.8-47.7c9.6-16.7,31-22.4,47.7-12.8
		C94.8,99,100.5,120.3,90.9,137"/>
	<path fill="#E535AB" d="M30.5,297.9c-9.6-16.7-3.9-38,12.8-47.7c16.7-9.6,38-3.9,47.7,12.8c9.6,16.7,3.9,38-12.8,47.7
		C61.4,320.3,40.1,314.6,30.5,297.9"/>
	<path fill="#E535AB" d="M309.1,137c-9.6-16.7-3.9-38,12.8-47.7c16.7-9.6,38-3.9,47.7,12.8c9.6,16.7,3.9,38-12.8,47.7
		C340.1,159.4,318.7,153.7,309.1,137"/>
	<path fill="#E535AB" d="M200,395.8c-19.3,0-34.9-15.6-34.9-34.9c0-19.3,15.6-34.9,34.9-34.9c19.3,0,34.9,15.6,34.9,34.9
		C234.9,380.1,219.3,395.8,200,395.8"/>
	<path fill="#E535AB" d="M200,74c-19.3,0-34.9-15.6-34.9-34.9c0-19.3,15.6-34.9,34.9-34.9c19.3,0,34.9,15.6,34.9,34.9
		C234.9,58.4,219.3,74,200,74"/>
</g>
</svg>

<?xml version="1.0" encoding="UTF-8" standalone="no"?>
<!DOCTYPE svg PUBLIC "-//W3C//DTD SVG 1.1//EN" "http://www.w3.org/Graphics/SVG/1.1/DTD/svg11.dtd">
<svg width="100%" height="100%" viewBox="0 0 400 400" version="1.1" xmlns="http://www.w3.org/2000/svg" xmlns:xlink="http://www.w3.org/1999/xlink" xml:space="preserve" xmlns:serif="http://www.serif.com/" style="fill-rule:evenodd;clip-rule:evenodd;stroke-linejoin:round;stroke-miterlimit:1.41421;">
    <rect x="0" y="0" width="400" height="400" style="fill-opacity:0.01;"/>
    <g>
        <g transform="matrix(-0.866,-0.5,0.5,-0.866,163.32,363.314)">
            <rect x="122" y="-0.4" width="16.6" height="320.3" style="fill:white;"/>
        </g>
        <rect x="39.8" y="272.2" width="320.3" height="16.6" style="fill:white;"/>
        <g transform="matrix(-0.866,-0.5,0.5,-0.866,83.0693,663.341)">
            <rect x="37.9" y="312.2" width="185" height="16.6" style="fill:white;"/>
        </g>
        <g transform="matrix(-0.866,-0.5,0.5,-0.866,463.341,283.069)">
            <rect x="177.1" y="71.1" width="185" height="16.6" style="fill:white;"/>
        </g>
        <g transform="matrix(-0.5,-0.866,0.866,-0.5,126.79,232.122)">
            <rect x="122.1" y="-13" width="16.6" height="185" style="fill:white;"/>
        </g>
        <g transform="matrix(-0.5,-0.866,0.866,-0.5,266.083,473.377)">
            <rect x="109.6" y="151.6" width="320.3" height="16.6" style="fill:white;"/>
        </g>
        <rect x="52.5" y="107.5" width="16.6" height="185" style="fill:white;"/>
        <rect x="330.9" y="107.5" width="16.6" height="185" style="fill:white;"/>
        <g transform="matrix(-0.5,-0.866,0.866,-0.5,126.795,714.288)">
            <rect x="262.4" y="240.1" width="14.5" height="160.9" style="fill:white;"/>
        </g>
        <path d="M369.5,297.9C359.9,314.6 338.5,320.3 321.8,310.7C305.1,301.1 299.4,279.7 309,263C318.6,246.3 340,240.6 356.7,250.2C373.5,259.9 379.2,281.2 369.5,297.9" style="fill:white;fill-rule:nonzero;"/>
        <path d="M90.9,137C81.3,153.7 59.9,159.4 43.2,149.8C26.5,140.2 20.8,118.8 30.4,102.1C40,85.4 61.4,79.7 78.1,89.3C94.8,99 100.5,120.3 90.9,137" style="fill:white;fill-rule:nonzero;"/>
        <path d="M30.5,297.9C20.9,281.2 26.6,259.9 43.3,250.2C60,240.6 81.3,246.3 91,263C100.6,279.7 94.9,301 78.2,310.7C61.4,320.3 40.1,314.6 30.5,297.9" style="fill:white;fill-rule:nonzero;"/>
        <path d="M309.1,137C299.5,120.3 305.2,99 321.9,89.3C338.6,79.7 359.9,85.4 369.6,102.1C379.2,118.8 373.5,140.1 356.8,149.8C340.1,159.4 318.7,153.7 309.1,137" style="fill:white;fill-rule:nonzero;"/>
        <path d="M200,395.8C180.7,395.8 165.1,380.2 165.1,360.9C165.1,341.6 180.7,326 200,326C219.3,326 234.9,341.6 234.9,360.9C234.9,380.1 219.3,395.8 200,395.8" style="fill:white;fill-rule:nonzero;"/>
        <path d="M200,74C180.7,74 165.1,58.4 165.1,39.1C165.1,19.8 180.7,4.2 200,4.2C219.3,4.2 234.9,19.8 234.9,39.1C234.9,58.4 219.3,74 200,74" style="fill:white;fill-rule:nonzero;"/>
    </g>
</svg>
